X: 30843
T: COTILLION No. 4. COQUETTE SETT tune 3
%R: reel, march
B: Elias Howe "The Musician's Companion" Part 3 1844 p.84 #3
S: http://imslp.org/wiki/The_Musician's_Companion_(Howe,_Elias)
Z: 2015 John Chambers <jc:trillian.mit.edu>
N: Strain 1 has only 7 bars. Copy bar 2 to after bar 5 if you prefer 8 bars.
M: 2/4
L: 1/16
K: D
% - - - - - - - - - - - - - - - - - - - - - - - - - - - - -
F2 |\
A2de f2a2 | A2fe d2B2 | A2de f2a2 | b2ag fed2 |\
A2de f2a2 | B2^gg g2g2 | a6 H|]
f2 |\
aaff aaff | ggee ggee | aaff aaff | ggff eedd |\
aaff aaff | ggee ggee | ffdd eecc | d2f2"^D.C."d2 |]
% - - - - - - - - - - Dance description - - - - - - - - - -
%%begintext align
%% All chassa across partners and back,
%% all balance partners and turn,
%% grand chain,
%% all promenade.
%%endtext
% - - - - - - - - - - - - - - - - - - - - - - - - - - - - -
%%sep 1 1 300
